symbolic/32x32/apps/crusader-kings-2.svg

<svg xmlns="http://www.w3.org/2000/svg" width="32" height="32" version="1.1">
 <path style="opacity:0.2;fill-rule:evenodd" d="M 15.499999,2 C 11.333334,3.3072299 7.166666,4.6189216 3,5.9294995 3.3052089,15.659 5.6364584,27.526693 15.499999,31 25.46875,27.631538 27.577084,15.554153 28,5.9294995 23.833333,4.6178072 19.666666,3.3061149 15.499999,2 Z"/>
 <path style="fill:#e6e6e6;fill-rule:evenodd" d="M 15.499999,3.5223495 C 11.973958,4.6024663 8.4489576,5.6858497 4.922916,6.7681448 5.1812493,14.804783 7.154166,24.6075 15.499999,27.47765 23.935416,24.695695 25.718749,14.718766 26.077083,6.7681448 22.551041,5.6847608 19.026041,4.6013775 15.499999,3.5223495"/>
 <path style="fill:#ff9744;fill-rule:evenodd" d="M 15.499999,0.99999997 C 11.333334,2.3072299 7.166666,3.6189216 3,4.9294995 3.3052089,14.659 5.6364584,26.526693 15.499999,30 25.46875,26.631538 27.577084,14.554153 28,4.9294995 23.833333,3.6178072 19.666666,2.3061149 15.499999,0.99999997 Z"/>
 <path style="fill:#ffd764;fill-rule:evenodd" d="M 15.499999,0.99999997 C 11.333334,2.3072299 7.166666,3.6189216 3,4.9294995 3.3052089,14.659 5.6364584,26.526693 15.499999,30 Z"/>
 <path style="opacity:0.2;fill-rule:evenodd" d="m 15.499999,4.8967634 c 3.172932,0.9951602 6.347297,1.9933844 9.521485,2.9925131 -0.292921,4.0856445 -0.877763,8.3537685 -2.278646,11.9161085 -1.503023,3.822072 -3.725432,6.625618 -7.225206,8.138719 C 12.03117,26.391858 9.7692972,23.582982 8.2449535,19.786505 6.8208132,16.23959 6.2265181,11.989065 5.9663077,7.893322 9.1449153,6.8933612 12.32265,5.8940459 15.499999,4.8967634 Z"/>
 <path style="fill:#ffffff;fill-rule:evenodd" d="m 15.499999,3.8967634 c 3.172932,0.9951602 6.347297,1.9933844 9.521485,2.9925131 -0.292921,4.0856445 -0.877763,8.3537685 -2.278646,11.9161085 -1.503023,3.822072 -3.725432,6.625618 -7.225206,8.138719 C 12.03117,25.391858 9.7692972,22.582982 8.2449535,18.786505 6.8208132,15.23959 6.2265181,10.989065 5.9663077,6.893322 9.1449153,5.8933612 12.32265,4.8940459 15.499999,3.8967634 Z"/>
 <path style="fill:#ec3e3e" d="M 15.5 3.8964844 C 14.47928 4.2168603 13.458315 4.5386255 12.4375 4.859375 L 14 6.5234375 L 14 11 L 8.6503906 11 L 8.2089844 11 L 6.1582031 9.1113281 C 6.3514052 11.121993 6.6360167 13.127629 7.0878906 15.039062 L 8.2089844 14 L 8.6503906 14 L 14 14 L 14 24.476562 L 13.074219 25.507812 C 13.076797 25.509755 13.079451 25.511731 13.082031 25.513672 C 13.379756 25.737596 13.696268 25.93996 14.017578 26.138672 C 14.096872 26.187617 14.169216 26.24364 14.25 26.291016 C 14.653543 26.528139 15.075293 26.746445 15.517578 26.943359 C 15.964108 26.750305 16.389218 26.535793 16.794922 26.300781 C 17.199359 26.066503 17.584218 25.812906 17.951172 25.539062 C 17.952312 25.538212 17.953939 25.53796 17.955078 25.537109 L 17 24.476562 L 17 14 L 22.330078 14 L 22.791016 14 L 23.888672 15.015625 C 24.329222 13.116221 24.613316 11.128348 24.814453 9.1386719 L 22.791016 11 L 22.330078 11 L 17 11 L 17 6.5234375 L 18.5625 4.859375 C 17.541643 4.5387068 16.520614 4.2165904 15.5 3.8964844 z"/>
 <path style="fill:#ffffff;fill-rule:evenodd;opacity:0.2" d="M 15.5 1 C 11.333335 2.3072299 7.166666 3.6191096 3 4.9296875 C 3.0101934 5.254635 3.0280504 5.5866905 3.0429688 5.9160156 C 7.1952962 4.6099402 11.347674 3.3027314 15.5 2 C 19.644474 3.299158 23.78912 4.6034976 27.933594 5.9082031 C 27.951463 5.5853429 27.986031 5.247598 28 4.9296875 C 23.833333 3.6179952 19.666667 2.3061149 15.5 1 z"/>
</svg>

<svg xmlns="http://www.w3.org/2000/svg" width="32" height="32"><path style="opacity:.2;fill-rule:evenodd" d="M15.5 2C11.333 3.307 7.167 4.619 3 5.93 3.305 15.658 5.636 27.526 15.5 31 25.469 27.632 27.577 15.554 28 5.93 23.833 4.617 19.667 3.305 15.5 2z"/><path style="fill:#e6e6e6;fill-rule:evenodd" d="M15.5 3.522c-3.526 1.08-7.051 2.164-10.577 3.246.258 8.037 2.231 17.84 10.577 20.71 8.435-2.782 10.219-12.76 10.577-20.71-3.526-1.083-7.051-2.167-10.577-3.246"/><path style="fill:#ff9744;fill-rule:evenodd" d="M15.5 1C11.333 2.307 7.167 3.619 3 4.93 3.305 14.658 5.636 26.526 15.5 30 25.469 26.632 27.577 14.554 28 4.93 23.833 3.617 19.667 2.305 15.5 1z"/><path style="fill:#ffd764;fill-rule:evenodd" d="M15.5 1C11.333 2.307 7.167 3.619 3 4.93 3.305 14.658 5.636 26.526 15.5 30z"/><path style="opacity:.2;fill-rule:evenodd" d="M15.5 4.897c3.173.995 6.347 1.993 9.521 2.992-.292 4.086-.877 8.354-2.278 11.916-1.503 3.822-3.726 6.626-7.225 8.14-3.487-1.553-5.749-4.362-7.273-8.158-1.424-3.547-2.018-7.798-2.279-11.894 3.179-1 6.357-1.999 9.534-2.996z"/><path style="fill:#fff;fill-rule:evenodd" d="M15.5 3.897c3.173.995 6.347 1.993 9.521 2.992-.292 4.086-.877 8.354-2.278 11.916-1.503 3.822-3.726 6.626-7.225 8.14-3.487-1.553-5.749-4.362-7.273-8.158-1.424-3.547-2.018-7.798-2.279-11.894 3.179-1 6.357-1.999 9.534-2.996z"/><path style="fill:#ec3e3e" d="m15.5 3.896-3.063.963L14 6.523V11H8.209l-2.05-1.889c.192 2.011.477 4.017.929 5.928L8.209 14H14v10.477l-.926 1.03.008.007c.298.224.614.426.936.625.079.049.151.105.232.152.404.237.825.455 1.268.652a12.216 12.216 0 0 0 2.433-1.404l.004-.002-.955-1.06V14h5.791l1.098 1.016c.44-1.9.724-3.888.925-5.877L22.791 11H17V6.523l1.563-1.664-3.063-.963z"/><path style="fill:#fff;fill-rule:evenodd;opacity:.2" d="M15.5 1C11.333 2.307 7.167 3.62 3 4.93c.01.325.028.657.043.986C7.195 4.61 11.348 3.303 15.5 2c4.144 1.3 8.29 2.603 12.434 3.908.017-.323.052-.66.066-.978C23.833 3.618 19.667 2.306 15.5 1z"/></svg>
